X:0
T:The Thrush and the Blackbird
Z:Jack Campin <http://www.campin.me.uk/> version 1.0 September 2001
N:Named by GS's son George MacLennan
C:Pipe Major George S. McLennan
S:Gordon Highlanders Pipe Music Collection volume II
B:NLS Mus.D.s.19
R:Reel
M:C|
L:1/8
Q:1/2=96
K:Hp
g|  {a}ef{gef}ed {gef}ed{g}B{d}A|{g}BG{gde}dG     {g}BG{gde}dB|\
    {g}ef{g}ed   {gef}ed{g}B{d}A|{g}G{d}A{e}A{d}B {g}Be{A}e  :|
g|{Gdc}de{gf}ga       ge{gde}dB |{a}gB{g}dB       {a}gB{g}de  |\
       ag{a}eg     {a}ed{g}B{d}A|{g}G{d}A{e}A{d}B {g}Be{A}e  :|
